src/images/svg/symbols/index300s1.svg

<svg width="32" height="32" viewBox="0 0 32 32" fill="none" xmlns="http://www.w3.org/2000/svg">
<path d="M25 30C27.7614 30 30 27.7614 30 25C30 22.2386 27.7614 20 25 20C22.2386 20 20 22.2386 20 25C20 27.7614 22.2386 30 25 30Z" fill="#EF4852"/>
<path d="M22.1496 27.2304V26.6204H23.4196V23.2304H23.3696L22.3196 24.3504L21.8696 23.9504L22.9996 22.6904H24.1196V26.6204H25.2296V27.2304H22.1496Z" fill="white"/>
<path d="M26.7899 27.3104C26.2563 27.3329 25.7451 27.0941 25.4199 26.6704L25.8799 26.2504C25.9925 26.3992 26.1357 26.5219 26.2999 26.6104C26.4632 26.6968 26.6452 26.7414 26.8299 26.7404C26.9955 26.7528 27.1606 26.7107 27.2999 26.6204C27.4001 26.5366 27.4555 26.4109 27.4499 26.2804C27.4501 26.1765 27.4107 26.0764 27.3399 26.0004C27.2356 25.9139 27.1054 25.8647 26.9699 25.8604H26.6599C26.3647 25.8354 26.0816 25.7318 25.8399 25.5604C25.6359 25.3833 25.5283 25.1197 25.5499 24.8504C25.5462 24.6988 25.5769 24.5484 25.6399 24.4104C25.7005 24.2878 25.7856 24.1789 25.8899 24.0904C26.0096 23.9971 26.1451 23.9259 26.2899 23.8804C26.4562 23.8352 26.6276 23.8117 26.7999 23.8104C27.0539 23.8025 27.3064 23.8503 27.5399 23.9504C27.7379 24.0483 27.9146 24.1842 28.0599 24.3504L27.6299 24.7704C27.5335 24.6568 27.4143 24.5648 27.2799 24.5004C27.1325 24.4208 26.9674 24.3796 26.7999 24.3804C26.6467 24.3666 26.4938 24.4093 26.3699 24.5004C26.2757 24.5749 26.2235 24.6905 26.2299 24.8104C26.2235 24.9203 26.2677 25.0272 26.3499 25.1004C26.4717 25.1751 26.6081 25.2229 26.7499 25.2404H27.0599C27.3588 25.2712 27.643 25.3856 27.8799 25.5704C28.0523 25.7414 28.1432 25.978 28.1299 26.2204C28.1331 26.3752 28.1024 26.5288 28.0399 26.6704C27.9759 26.8022 27.8837 26.9182 27.7699 27.0104C27.6434 27.1071 27.5014 27.1815 27.3499 27.2304C27.1682 27.2843 26.9795 27.3113 26.7899 27.3104Z" fill="white"/>
<path d="M29.9298 11.7597C30.0227 11.606 30.0266 11.4145 29.94 11.2573C29.8534 11.1 29.6895 11.0009 29.51 10.9972C29.3305 10.9936 29.1627 11.086 29.0698 11.2397L26.7998 14.9997H26.4998C26.2203 15.0022 25.947 15.0818 25.7098 15.2297L22.9098 12.9997C22.9707 12.8401 23.0012 12.6705 22.9998 12.4997C22.9998 11.6712 22.3282 10.9997 21.4998 10.9997C20.6714 10.9997 19.9998 11.6712 19.9998 12.4997C19.9994 12.8479 20.1236 13.1849 20.3498 13.4497L18.7998 15.9997C18.4243 15.9227 18.0335 15.9943 17.7098 16.1997L14.9098 13.9997C14.9707 13.8401 15.0012 13.6705 14.9998 13.4997C15.0181 12.8195 14.5764 12.2122 13.9236 12.0202C13.2709 11.8282 12.5706 12.0996 12.2178 12.6814C11.865 13.2631 11.9479 14.0095 12.4198 14.4997L10.6798 17.9997H10.4998C10.2203 18.0022 9.94698 18.0818 9.7098 18.2297L6.9098 15.9997C7.00537 15.7039 7.00537 15.3855 6.9098 15.0897C6.72718 14.4581 6.15696 14.0173 5.4998 13.9997C5.35768 13.9999 5.21631 14.0201 5.0798 14.0597C4.29257 14.3002 3.8463 15.1303 4.0798 15.9197C4.16722 16.2248 4.35368 16.4922 4.6098 16.6797L3.4698 19.9997C2.73402 20.0096 2.11251 20.5484 1.99838 21.2753C1.88425 22.0023 2.31074 22.7056 3.00809 22.9405C3.70544 23.1754 4.47056 22.8734 4.81952 22.2256C5.16848 21.5778 4.99964 20.7727 4.4198 20.3197L5.5298 16.9997C5.67192 16.9994 5.81329 16.9792 5.9498 16.9397C6.07895 16.8966 6.20302 16.8396 6.3198 16.7697L9.0898 18.9997C9.02889 19.1593 8.99836 19.3288 8.9998 19.4997C8.98148 20.1798 9.42324 20.7871 10.076 20.9791C10.7287 21.1711 11.429 20.8997 11.7818 20.3179C12.1346 19.7362 12.0517 18.9898 11.5798 18.4997L13.3198 14.9997H13.4998C13.7793 14.9971 14.0526 14.9175 14.2898 14.7697L17.0898 16.9997C17.0301 17.1561 16.9996 17.3222 16.9998 17.4897C16.9998 18.3181 17.6714 18.9897 18.4998 18.9897C19.3282 18.9897 19.9998 18.3181 19.9998 17.4897C20.0002 17.1414 19.876 16.8044 19.6498 16.5397L21.1998 13.9997H21.4998C21.7793 13.9971 22.0526 13.9175 22.2898 13.7697L25.0898 15.9997C25.0301 16.1561 24.9996 16.3222 24.9998 16.4897C24.9998 17.3181 25.6714 17.9897 26.4998 17.9897C27.3282 17.9897 27.9998 17.3181 27.9998 16.4897C28.0002 16.1414 27.876 15.8044 27.6498 15.5397L29.9298 11.7597ZM3.4998 21.9997C3.22366 21.9997 2.9998 21.7758 2.9998 21.4997C2.9998 21.2235 3.22366 20.9997 3.4998 20.9997C3.77594 20.9997 3.9998 21.2235 3.9998 21.4997C3.9998 21.7758 3.77594 21.9997 3.4998 21.9997ZM5.6398 15.9997H5.4998C5.32117 16.0247 5.14276 15.9525 5.03179 15.8103C4.92081 15.6681 4.89413 15.4775 4.96179 15.3103C5.02945 15.1431 5.18117 15.0247 5.3598 14.9997H5.4998C5.77594 14.961 6.03114 15.1535 6.0698 15.4297C6.10846 15.7058 5.91594 15.961 5.6398 15.9997ZM10.4998 19.9997C10.2237 19.9997 9.9998 19.7758 9.9998 19.4997C9.9998 19.2235 10.2237 18.9997 10.4998 18.9997C10.7759 18.9997 10.9998 19.2235 10.9998 19.4997C10.9998 19.7758 10.7759 19.9997 10.4998 19.9997ZM13.4998 13.9997C13.2237 13.9997 12.9998 13.7758 12.9998 13.4997C12.9998 13.2235 13.2237 12.9997 13.4998 12.9997C13.7759 12.9997 13.9998 13.2235 13.9998 13.4997C13.9998 13.7758 13.7759 13.9997 13.4998 13.9997ZM18.4998 17.9997C18.2237 17.9997 17.9998 17.7758 17.9998 17.4997C17.9998 17.2235 18.2237 16.9997 18.4998 16.9997C18.7759 16.9997 18.9998 17.2235 18.9998 17.4997C18.9998 17.7758 18.7759 17.9997 18.4998 17.9997ZM21.4998 12.9997C21.2237 12.9997 20.9998 12.7758 20.9998 12.4997C20.9998 12.2235 21.2237 11.9997 21.4998 11.9997C21.7759 11.9997 21.9998 12.2235 21.9998 12.4997C21.9998 12.7758 21.7759 12.9997 21.4998 12.9997ZM26.4998 16.9997C26.2237 16.9997 25.9998 16.7758 25.9998 16.4997C25.9998 16.2235 26.2237 15.9997 26.4998 15.9997C26.7759 15.9997 26.9998 16.2235 26.9998 16.4997C26.9998 16.7758 26.7759 16.9997 26.4998 16.9997Z" fill="#84AAAF"/>
<path d="M17 2H3C2.44772 2 2 2.44772 2 3V9C2 9.55228 2.44772 10 3 10H17C17.5523 10 18 9.55228 18 9V3C18 2.44772 17.5523 2 17 2Z" fill="#2A2A2A"/>
<path d="M5.589 5.56566C5.89234 5.56566 6.11634 5.50266 6.261 5.37666C6.40567 5.24599 6.478 5.08032 6.478 4.87966V4.83066C6.478 4.60666 6.408 4.43632 6.268 4.31966C6.128 4.19832 5.939 4.13766 5.701 4.13766C5.46767 4.13766 5.26934 4.19132 5.106 4.29866C4.94267 4.40132 4.805 4.54599 4.693 4.73266L4.168 4.27766C4.24267 4.17032 4.32667 4.06766 4.42 3.96966C4.51334 3.87166 4.623 3.78766 4.749 3.71766C4.875 3.64299 5.01734 3.58466 5.176 3.54266C5.33467 3.49599 5.51667 3.47266 5.722 3.47266C5.95067 3.47266 6.163 3.50066 6.359 3.55666C6.555 3.61266 6.723 3.69666 6.863 3.80866C7.003 3.91599 7.11267 4.04899 7.192 4.20766C7.27134 4.36166 7.311 4.53666 7.311 4.73266C7.311 4.88666 7.28534 5.02666 7.234 5.15266C7.18734 5.27866 7.11967 5.39066 7.031 5.48866C6.947 5.58199 6.84667 5.65899 6.73 5.71966C6.618 5.78032 6.499 5.82466 6.373 5.85266V5.88766C6.513 5.91566 6.64367 5.96232 6.765 6.02766C6.891 6.08832 7.00067 6.16999 7.094 6.27266C7.18734 6.37066 7.25967 6.48966 7.311 6.62966C7.367 6.76499 7.395 6.92132 7.395 7.09866C7.395 7.31332 7.353 7.50932 7.269 7.68666C7.185 7.85932 7.066 8.00866 6.912 8.13466C6.76267 8.26066 6.58067 8.35866 6.366 8.42866C6.15134 8.49399 5.91334 8.52666 5.652 8.52666C5.42334 8.52666 5.22267 8.50099 5.05 8.44966C4.87734 8.40299 4.72334 8.33999 4.588 8.26066C4.45734 8.17666 4.34067 8.08332 4.238 7.98066C4.14 7.87332 4.05367 7.76366 3.979 7.65166L4.56 7.19666C4.62067 7.29466 4.68367 7.38566 4.749 7.46966C4.819 7.54899 4.896 7.61899 4.98 7.67966C5.06867 7.73566 5.16667 7.77999 5.274 7.81266C5.386 7.84532 5.512 7.86166 5.652 7.86166C5.95067 7.86166 6.17934 7.79166 6.338 7.65166C6.49667 7.50699 6.576 7.30866 6.576 7.05666V7.00766C6.576 6.75566 6.492 6.56432 6.324 6.43366C6.156 6.30299 5.918 6.23766 5.61 6.23766H5.092V5.56566H5.589Z" fill="white"/>
<path d="M10.0523 8.52666C9.74894 8.52666 9.48527 8.47066 9.26127 8.35866C9.03727 8.24199 8.85294 8.07632 8.70827 7.86166C8.5636 7.64699 8.45627 7.38332 8.38627 7.07066C8.31627 6.75799 8.28127 6.40099 8.28127 5.99966C8.28127 5.60299 8.31627 5.24832 8.38627 4.93566C8.45627 4.61832 8.5636 4.35232 8.70827 4.13766C8.85294 3.92299 9.03727 3.75966 9.26127 3.64766C9.48527 3.53099 9.74894 3.47266 10.0523 3.47266C10.6589 3.47266 11.1046 3.69432 11.3893 4.13766C11.6786 4.58099 11.8233 5.20166 11.8233 5.99966C11.8233 6.79766 11.6786 7.41832 11.3893 7.86166C11.1046 8.30499 10.6589 8.52666 10.0523 8.52666ZM10.0523 7.85466C10.2203 7.85466 10.3626 7.82199 10.4793 7.75666C10.6006 7.68666 10.6986 7.58866 10.7733 7.46266C10.8479 7.33666 10.9016 7.18732 10.9343 7.01466C10.9669 6.83732 10.9833 6.64132 10.9833 6.42666V5.57266C10.9833 5.35799 10.9669 5.16432 10.9343 4.99166C10.9016 4.81432 10.8479 4.66266 10.7733 4.53666C10.6986 4.41066 10.6006 4.31499 10.4793 4.24966C10.3626 4.17966 10.2203 4.14466 10.0523 4.14466C9.88427 4.14466 9.7396 4.17966 9.61827 4.24966C9.5016 4.31499 9.40594 4.41066 9.33127 4.53666C9.2566 4.66266 9.20294 4.81432 9.17027 4.99166C9.1376 5.16432 9.12127 5.35799 9.12127 5.57266V6.42666C9.12127 6.64132 9.1376 6.83732 9.17027 7.01466C9.20294 7.18732 9.2566 7.33666 9.33127 7.46266C9.40594 7.58866 9.5016 7.68666 9.61827 7.75666C9.7396 7.82199 9.88427 7.85466 10.0523 7.85466Z" fill="white"/>
<path d="M14.2495 8.52666C13.9462 8.52666 13.6825 8.47066 13.4585 8.35866C13.2345 8.24199 13.0502 8.07632 12.9055 7.86166C12.7609 7.64699 12.6535 7.38332 12.5835 7.07066C12.5135 6.75799 12.4785 6.40099 12.4785 5.99966C12.4785 5.60299 12.5135 5.24832 12.5835 4.93566C12.6535 4.61832 12.7609 4.35232 12.9055 4.13766C13.0502 3.92299 13.2345 3.75966 13.4585 3.64766C13.6825 3.53099 13.9462 3.47266 14.2495 3.47266C14.8562 3.47266 15.3019 3.69432 15.5865 4.13766C15.8759 4.58099 16.0205 5.20166 16.0205 5.99966C16.0205 6.79766 15.8759 7.41832 15.5865 7.86166C15.3019 8.30499 14.8562 8.52666 14.2495 8.52666ZM14.2495 7.85466C14.4175 7.85466 14.5599 7.82199 14.6765 7.75666C14.7979 7.68666 14.8959 7.58866 14.9705 7.46266C15.0452 7.33666 15.0989 7.18732 15.1315 7.01466C15.1642 6.83732 15.1805 6.64132 15.1805 6.42666V5.57266C15.1805 5.35799 15.1642 5.16432 15.1315 4.99166C15.0989 4.81432 15.0452 4.66266 14.9705 4.53666C14.8959 4.41066 14.7979 4.31499 14.6765 4.24966C14.5599 4.17966 14.4175 4.14466 14.2495 4.14466C14.0815 4.14466 13.9369 4.17966 13.8155 4.24966C13.6989 4.31499 13.6032 4.41066 13.5285 4.53666C13.4539 4.66266 13.4002 4.81432 13.3675 4.99166C13.3349 5.16432 13.3185 5.35799 13.3185 5.57266V6.42666C13.3185 6.64132 13.3349 6.83732 13.3675 7.01466C13.4002 7.18732 13.4539 7.33666 13.5285 7.46266C13.6032 7.58866 13.6989 7.68666 13.8155 7.75666C13.9369 7.82199 14.0815 7.85466 14.2495 7.85466Z" fill="white"/>
</svg>

<svg width="32" height="32" fill="none" xmlns="http://www.w3.org/2000/svg"><path d="M25 30a5 5 0 1 0 0-10 5 5 0 0 0 0 10Z" fill="#EF4852"/><path d="M22.15 27.23v-.61h1.27v-3.39h-.05l-1.05 1.12-.45-.4L23 22.69h1.12v3.93h1.11v.61h-3.08ZM26.79 27.31a1.64 1.64 0 0 1-1.37-.64l.46-.42a1.3 1.3 0 0 0 .42.36c.163.087.345.131.53.13a.76.76 0 0 0 .47-.12.42.42 0 0 0 .15-.34.41.41 0 0 0-.11-.28.61.61 0 0 0-.37-.14h-.31a1.66 1.66 0 0 1-.82-.3.85.85 0 0 1-.29-.71 1 1 0 0 1 .09-.44c.06-.122.146-.231.25-.32a1.27 1.27 0 0 1 .4-.21c.166-.045.338-.068.51-.07.254-.008.506.04.74.14.198.098.375.234.52.4l-.43.42a1.06 1.06 0 0 0-.35-.27 1 1 0 0 0-.48-.12.63.63 0 0 0-.43.12.37.37 0 0 0-.14.31.36.36 0 0 0 .12.29 1 1 0 0 0 .4.14h.31a1.6 1.6 0 0 1 .82.33.85.85 0 0 1 .25.65 1.06 1.06 0 0 1-.09.45 1 1 0 0 1-.27.34 1.4 1.4 0 0 1-.42.22c-.182.054-.37.081-.56.08Z" fill="#fff"/><path d="M29.93 11.76a.502.502 0 1 0-.86-.52L26.8 15h-.3c-.28.002-.553.082-.79.23L22.91 13c.06-.16.091-.33.09-.5a1.5 1.5 0 1 0-3 0c0 .348.124.685.35.95L18.8 16a1.48 1.48 0 0 0-1.09.2l-2.8-2.2c.06-.16.091-.33.09-.5a1.5 1.5 0 1 0-2.58 1L10.68 18h-.18c-.28.002-.553.082-.79.23L6.91 16a1.48 1.48 0 0 0 0-.91A1.51 1.51 0 0 0 5.5 14c-.142 0-.284.02-.42.06a1.5 1.5 0 0 0-1 1.86c.087.305.274.572.53.76L3.47 20a1.51 1.51 0 1 0 .95.32L5.53 17c.142 0 .283-.02.42-.06.129-.043.253-.1.37-.17L9.09 19c-.061.16-.092.329-.09.5a1.5 1.5 0 1 0 2.58-1l1.74-3.5h.18a1.52 1.52 0 0 0 .79-.23l2.8 2.23a1.37 1.37 0 0 0-.09.49 1.5 1.5 0 0 0 3 0 1.46 1.46 0 0 0-.35-.95L21.2 14h.3a1.52 1.52 0 0 0 .79-.23l2.8 2.23a1.37 1.37 0 0 0-.09.49 1.5 1.5 0 0 0 3 0 1.46 1.46 0 0 0-.35-.95l2.28-3.78ZM3.5 22a.5.5 0 1 1 0-1 .5.5 0 0 1 0 1Zm2.14-6H5.5a.505.505 0 0 1-.14-1h.14a.505.505 0 1 1 .14 1Zm4.86 4a.5.5 0 1 1 0-1 .5.5 0 0 1 0 1Zm3-6a.5.5 0 1 1 0-1 .5.5 0 0 1 0 1Zm5 4a.5.5 0 1 1 0-1 .5.5 0 0 1 0 1Zm3-5a.5.5 0 1 1 0-1 .5.5 0 0 1 0 1Zm5 4a.5.5 0 1 1 0-1 .5.5 0 0 1 0 1Z" fill="#84AAAF"/><path d="M17 2H3a1 1 0 0 0-1 1v6a1 1 0 0 0 1 1h14a1 1 0 0 0 1-1V3a1 1 0 0 0-1-1Z" fill="#2A2A2A"/><path d="M5.589 5.566c.303 0 .527-.063.672-.19a.64.64 0 0 0 .217-.496v-.05c0-.223-.07-.394-.21-.51-.14-.122-.329-.182-.567-.182a1.06 1.06 0 0 0-.595.16 1.275 1.275 0 0 0-.413.435l-.525-.455c.075-.108.159-.21.252-.308s.203-.182.329-.252a1.938 1.938 0 0 1 .973-.245c.229 0 .441.028.637.084.196.056.364.14.504.252a1.137 1.137 0 0 1 .448.924c0 .154-.026.294-.077.42a1.028 1.028 0 0 1-.504.567 1.37 1.37 0 0 1-.357.133v.035c.14.028.27.074.392.14.126.06.236.142.329.245.093.098.166.217.217.357.056.135.084.291.084.469 0 .214-.042.41-.126.588a1.32 1.32 0 0 1-.357.448 1.61 1.61 0 0 1-.546.294 2.446 2.446 0 0 1-.714.098 2.12 2.12 0 0 1-1.064-.266 2.094 2.094 0 0 1-.35-.28 2.758 2.758 0 0 1-.259-.33l.581-.454c.06.098.124.189.189.273.07.079.147.149.231.21a1.204 1.204 0 0 0 .672.182c.299 0 .527-.07.686-.21.159-.145.238-.343.238-.595v-.05c0-.251-.084-.443-.252-.573-.168-.131-.406-.196-.714-.196h-.518v-.672h.497ZM10.052 8.527c-.303 0-.567-.056-.79-.168a1.487 1.487 0 0 1-.554-.497 2.304 2.304 0 0 1-.322-.791A4.928 4.928 0 0 1 8.281 6c0-.397.035-.752.105-1.064.07-.318.178-.584.322-.798a1.43 1.43 0 0 1 .553-.49 1.69 1.69 0 0 1 .791-.175c.607 0 1.053.221 1.337.665.29.443.434 1.064.434 1.862s-.144 1.418-.434 1.862c-.284.443-.73.665-1.337.665Zm0-.672c.168 0 .31-.033.427-.098a.808.808 0 0 0 .294-.294c.075-.126.129-.276.161-.448.033-.178.05-.374.05-.588v-.854c0-.215-.017-.409-.05-.581a1.378 1.378 0 0 0-.16-.455.816.816 0 0 0-.721-.392.854.854 0 0 0-.435.105.77.77 0 0 0-.287.287 1.376 1.376 0 0 0-.16.455 3.14 3.14 0 0 0-.05.58v.855c0 .214.017.41.05.588.032.172.086.322.16.448.075.126.17.224.287.294a.903.903 0 0 0 .434.098ZM14.25 8.527c-.304 0-.568-.056-.791-.168a1.487 1.487 0 0 1-.553-.497 2.306 2.306 0 0 1-.322-.791A4.928 4.928 0 0 1 12.479 6c0-.397.035-.752.105-1.064.07-.318.177-.584.322-.798a1.43 1.43 0 0 1 .553-.49 1.69 1.69 0 0 1 .79-.175c.607 0 1.053.221 1.337.665.29.443.434 1.064.434 1.862s-.144 1.418-.434 1.862c-.284.443-.73.665-1.337.665Zm0-.672c.168 0 .31-.033.427-.098a.806.806 0 0 0 .293-.294c.075-.126.129-.276.162-.448.032-.178.049-.374.049-.588v-.854c0-.215-.017-.409-.05-.581a1.374 1.374 0 0 0-.16-.455.816.816 0 0 0-.721-.392.854.854 0 0 0-.434.105.77.77 0 0 0-.288.287 1.378 1.378 0 0 0-.16.455 3.145 3.145 0 0 0-.05.58v.855c0 .214.017.41.05.588.032.172.086.322.16.448.075.126.17.224.287.294a.903.903 0 0 0 .434.098Z" fill="#fff"/></svg>
